X: 140
T:Shave the Monkey
M:6/8
L:1/8
K:G
d^cd cAc | BGB A2 F | DEF GFG |
AGA B2 G | d^cd cAc | BGB A2 F |
DEF GFG |1 AGF G3 |2 AGF G2||
A | _BAB G2 A | _BAB GA_B |
AGA F2 G | AGA FGA | _BAB G2 A |
_BAB G2 d | ^c=c_B AGF | DEF G2 :||
